static/icons/Crazyhouse.svg

<svg height="50" viewBox="0 0 13.229166 13.229167" width="50" xmlns="http://www.w3.org/2000/svg"><path d="m25.03125 1.6171875c-7.155249 5.2822678-29.7102205 24.6386715-20.8164062 24.6386715h5.7578124v21.111329h30.0585938v-21.111329h5.978516c8.588171-.256516-14.202076-19.3564037-20.978516-24.6386715zm5.826172 17.9414065a3.1250003 3.1696429 0 0 1 3.125 3.169922 3.1250003 3.1696429 0 0 1 -3.125 3.169922 3.1250003 3.1696429 0 0 1 -3.125-3.169922 3.1250003 3.1696429 0 0 1 3.125-3.169922zm-10.982422 3.482422a3.1250003 3.1696429 0 0 1 3.125 3.169922 3.1250003 3.1696429 0 0 1 -3.125 3.169921 3.1250003 3.1696429 0 0 1 -3.125-3.169921 3.1250003 3.1696429 0 0 1 3.125-3.169922zm16.339844 10.625-1.607422 2.857422c-.853556 1.517442-1.864894 4.245759-6.25 2.410156l-3.839844-1.607422c-6.610359-2.767181-3.100593 5.183937-10.982422-.267578 0 0 2.871476.711551 4.107422.625 1.787538-.125065 2.496885-2.430348 4.107422-2.589844 3.23425-.320088 6.005105 4.004337 9.107422 3.482422 2.388885-.401877 5.357422-4.910156 5.357422-4.910156z" fill="#70787d" fill-opacity=".992157" opacity=".99" transform="scale(.26458333)"/></svg>

<?xml version="1.0" encoding="UTF-8" standalone="no"?>
<svg
   xmlns:dc="http://purl.org/dc/elements/1.1/"
   xmlns:cc="http://creativecommons.org/ns#"
   xmlns:rdf="http://www.w3.org/1999/02/22-rdf-syntax-ns#"
   xmlns:svg="http://www.w3.org/2000/svg"
   xmlns="http://www.w3.org/2000/svg"
   xmlns:sodipodi="http://sodipodi.sourceforge.net/DTD/sodipodi-0.dtd"
   xmlns:inkscape="http://www.inkscape.org/namespaces/inkscape"
   width="50"
   height="50"
   viewBox="0 0 13.229166 13.229167"
   version="1.1"
   id="svg1579"
   sodipodi:docname="Crazyhouse.svg"
   inkscape:version="1.0.1 (3bc2e813f5, 2020-09-07)">
  <defs
     id="defs1573">
    <inkscape:path-effect
       effect="mirror_symmetry"
       start_point="-15.691712,-45.362002"
       end_point="-15.691712,4.437998"
       center_point="-15.691712,-20.462002"
       id="path-effect7365"
       is_visible="true"
       mode="free"
       discard_orig_path="false"
       fuse_paths="true"
       oposite_fuse="false" />
    <inkscape:path-effect
       effect="mirror_symmetry"
       start_point="275.14301,98.12006"
       end_point="275.14301,350.07326"
       center_point="275.14301,224.09666"
       id="path-effect4547-0"
       is_visible="true"
       mode="free"
       discard_orig_path="false"
       fuse_paths="true"
       oposite_fuse="false" />
    <inkscape:path-effect
       effect="mirror_symmetry"
       start_point="274.67636,240.21573"
       end_point="274.67636,418.88419"
       center_point="274.67636,329.54996"
       id="path-effect4551-7"
       is_visible="true"
       mode="free"
       discard_orig_path="false"
       fuse_paths="false"
       oposite_fuse="false" />
    <inkscape:path-effect
       effect="mirror_symmetry"
       start_point="273.50283,331.92091"
       end_point="273.50283,477.30227"
       center_point="273.50283,404.61159"
       id="path-effect4557-0"
       is_visible="true"
       mode="free"
       discard_orig_path="false"
       fuse_paths="false"
       oposite_fuse="false" />
    <inkscape:path-effect
       effect="mirror_symmetry"
       start_point="315.71788,90.192596"
       end_point="315.71788,96.192596"
       center_point="315.71788,93.192596"
       id="path-effect4669"
       is_visible="true"
       mode="free"
       discard_orig_path="false"
       fuse_paths="false"
       oposite_fuse="false" />
    <inkscape:path-effect
       oposite_fuse="false"
       fuse_paths="false"
       discard_orig_path="false"
       mode="free"
       is_visible="true"
       id="path-effect4802"
       center_point="316.91112,93.060013"
       end_point="316.91112,96.060013"
       start_point="316.91112,90.060013"
       effect="mirror_symmetry" />
  </defs>
  <sodipodi:namedview
     id="base"
     pagecolor="#ffffff"
     bordercolor="#666666"
     borderopacity="1.0"
     inkscape:pageopacity="0.0"
     inkscape:pageshadow="2"
     inkscape:zoom="7.9195959"
     inkscape:cx="33.163274"
     inkscape:cy="1.9955312"
     inkscape:document-units="px"
     inkscape:current-layer="layer1"
     showgrid="false"
     units="px"
     showguides="true"
     inkscape:window-width="3840"
     inkscape:window-height="2050"
     inkscape:window-x="-12"
     inkscape:window-y="-12"
     inkscape:window-maximized="1"
     inkscape:lockguides="true"
     inkscape:document-rotation="0" />
  <metadata
     id="metadata1576">
    <rdf:RDF>
      <cc:Work
         rdf:about="">
        <dc:format>image/svg+xml</dc:format>
        <dc:type
           rdf:resource="http://purl.org/dc/dcmitype/StillImage" />
        <dc:title></dc:title>
      </cc:Work>
    </rdf:RDF>
  </metadata>
  <g
     inkscape:label="Layer 1"
     inkscape:groupmode="layer"
     id="layer1"
     transform="translate(0,-283.77082)"
     style="opacity:0.98999999">
    <path
       style="opacity:1;fill:#70787d;fill-opacity:0.99215686;stroke:none;stroke-width:3.34786987;stroke-linecap:square;stroke-linejoin:miter;stroke-miterlimit:10;stroke-dasharray:none;stroke-opacity:1;paint-order:normal"
       d="M 25.03125 1.6171875 C 17.876001 6.8994553 -4.6789705 26.255859 4.2148438 26.255859 L 9.9726562 26.255859 L 9.9726562 47.367188 L 40.03125 47.367188 L 40.03125 26.255859 L 46.009766 26.255859 C 54.597937 25.999343 31.80769 6.8994553 25.03125 1.6171875 z M 30.857422 19.558594 A 3.1250003 3.1696429 0 0 1 33.982422 22.728516 A 3.1250003 3.1696429 0 0 1 30.857422 25.898438 A 3.1250003 3.1696429 0 0 1 27.732422 22.728516 A 3.1250003 3.1696429 0 0 1 30.857422 19.558594 z M 19.875 23.041016 A 3.1250003 3.1696429 0 0 1 23 26.210938 A 3.1250003 3.1696429 0 0 1 19.875 29.380859 A 3.1250003 3.1696429 0 0 1 16.75 26.210938 A 3.1250003 3.1696429 0 0 1 19.875 23.041016 z M 36.214844 33.666016 L 34.607422 36.523438 C 33.753866 38.04088 32.742528 40.769197 28.357422 38.933594 L 24.517578 37.326172 C 17.907219 34.558991 21.416985 42.510109 13.535156 37.058594 C 13.535156 37.058594 16.406632 37.770145 17.642578 37.683594 C 19.430116 37.558529 20.139463 35.253246 21.75 35.09375 C 24.98425 34.773662 27.755105 39.098087 30.857422 38.576172 C 33.246307 38.174295 36.214844 33.666016 36.214844 33.666016 z "
       transform="matrix(0.26458333,0,0,0.26458333,0,283.77082)"
       id="rect7553" />
  </g>
</svg>
